src/assets/images/pause.svg

<svg fill="none" height="16" viewBox="0 0 12 16" width="12" xmlns="http://www.w3.org/2000/svg"><path d="m3.06066 15.061c.2813-.2813.43934-.6628.43934-1.0606v-12.00003c0-.39783-.15804-.77936-.43934-1.060665-.2813-.281304-.66284-.439339-1.06066-.439339s-.77936.158034-1.060661.439339c-.281306.281305-.439339.662835-.439339 1.060665v12.00003c0 .3978.158034.7793.439339 1.0606.281301.2813.662831.4394 1.060661.4394s.77936-.1581 1.06066-.4394zm8.00004 0c.2813-.2813.4393-.6628.4393-1.0606v-12.00003c0-.39783-.158-.77936-.4393-1.060665-.2813-.281304-.6629-.439339-1.0607-.439339-.39782 0-.77935.158035-1.06066.439339-.2813.281305-.43934.662835-.43934 1.060665v12.00003c0 .3978.15804.7793.43934 1.0606s.66283.4394 1.06066.4394c.3978 0 .7794-.1581 1.0607-.4394z" fill="#fff" stroke="#fff"/></svg>

<svg width="12" height="16" viewBox="0 0 12 16" fill="none" xmlns="http://www.w3.org/2000/svg">
<path d="M3.06066 15.061C3.34196 14.7797 3.5 14.3982 3.5 14.0004L3.5 2.00037C3.5 1.60254 3.34196 1.22101 3.06066 0.939705C2.77936 0.658401 2.39782 0.500366 2 0.500366C1.60218 0.500366 1.22064 0.6584 0.939339 0.939705C0.658033 1.22101 0.5 1.60254 0.5 2.00037L0.5 14.0004C0.5 14.3982 0.658034 14.7797 0.939339 15.061C1.22064 15.3423 1.60217 15.5004 2 15.5004C2.39783 15.5004 2.77936 15.3423 3.06066 15.061ZM11.0607 15.061C11.342 14.7797 11.5 14.3982 11.5 14.0004L11.5 2.00037C11.5 1.60254 11.342 1.22101 11.0607 0.939705C10.7794 0.658401 10.3978 0.500366 10 0.500366C9.60218 0.500366 9.22065 0.658401 8.93934 0.939705C8.65804 1.22101 8.5 1.60254 8.5 2.00037L8.5 14.0004C8.5 14.3982 8.65804 14.7797 8.93934 15.061C9.22064 15.3423 9.60217 15.5004 10 15.5004C10.3978 15.5004 10.7794 15.3423 11.0607 15.061Z" fill="white" stroke="white"/>
</svg>
